X: 33857
T: Rectory, The
R: reel
M: 4/4
K: Eminor
|:egfd eB B2|AcBA GE E2|EBGE FAdA|Bege fagf|
egfd eB B2|AcBA GE E2|EBGE FAdA|Bgfd e2 ef|
feed eB B2|AcBA GE E2|EBGE FAdA|Bege fagf|
e2 fd eB B2|AcBA GE E2|EBGE FAdA|Bgfd e2 ef||
|:feBe febe|edAd fagf|geBe gebg|afde fe e2|
feBe febe|edAd fagf|e2 fd eB B2|AcBA GE E2:|
EBGE FAdA|Bege dAFA|EBGE FA d2|AFAE FEEA|
EBGE FAdA|Begf egfd|e2 fd eB B2|AcBA GE E2|
EBGE FAdA|Bege dAFA|EBGE FA d2|AFAE FEEA|
EBGE FAdA|Begf efga|bgeg afdf|gece f/g/a gf||

